X:153
%%musicspace -10
T:Click Go the Shears
M:4/4
L:1/16
K:D
D3E | "D"F4 F3E D4 F3A | "G"d4 d3c B8 | "D"A4 A3B A4 F3D | "A"E4 E3F E8 | 
"D"F4 F3E D4 F3A | "G"d4 d3c B8 | "A7"e3d c3B (3A2B2A2 (3G2F2E2 | "D"D4 d3d d8 || 
"A"e4 e3e c4 e4 | "D"d4 f4 d8 | "G"B4 B3c d3c d3B | "D"A3B A3F "A7"E3G F3E | 
"D"F4 F3E D4 F3A | "G"d4 d3c B8 | "A7"e3d c3B (3A2B2A2 (3G2F2E2 | "D"D4 d3d d4 |]

